packages/dnb-eufemia/assets/icons/file_csv.svg

<svg width="16" height="16" viewBox="0 0 16 16" fill="none" xmlns="http://www.w3.org/2000/svg">
<path d="M10.7181 4.98526C10.9861 5.30109 11.4594 5.33986 11.7753 5.07186C12.0911 4.80385 12.1299 4.33057 11.8619 4.01474L10.7181 4.98526ZM4 15.5927C4.41421 15.5927 4.75 15.2569 4.75 14.8427C4.75 14.4285 4.41421 14.0927 4 14.0927V15.5927ZM2 1.00001L2 1.75001L2 1.00001ZM7.85706 1L7.85706 1.75L7.85706 1ZM8.61953 1.35298L8.04768 1.83825L8.61953 1.35298ZM1.75 13.8427V2.00001H0.25V13.8427H1.75ZM2 1.75001L7.85706 1.75L7.85705 0.250001L2 0.250008L2 1.75001ZM8.04768 1.83825L10.7181 4.98526L11.8619 4.01474L9.19139 0.867723L8.04768 1.83825ZM2 15.5927H4V14.0927H2V15.5927ZM1.75 2.00001C1.75 1.86194 1.86193 1.75001 2 1.75001L2 0.250008C1.0335 0.250009 0.25 1.03351 0.25 2.00001H1.75ZM0.25 13.8427C0.25 14.8092 1.0335 15.5927 2 15.5927V14.0927C1.86193 14.0927 1.75 13.9807 1.75 13.8427H0.25ZM7.85706 1.75C7.93047 1.75 8.00017 1.78227 8.04768 1.83825L9.19139 0.867723C8.85889 0.475884 8.37096 0.25 7.85705 0.250001L7.85706 1.75Z" fill="black"/>
<path d="M5.04112 10.3336C5.04112 9.40693 5.36112 8.80026 5.86112 8.80026C6.28779 8.80026 6.51445 9.05359 6.58112 9.60693L7.50778 9.28026C7.36779 8.42693 6.78112 7.93359 5.90778 7.93359C4.73445 7.93359 4.02112 8.84026 4.02112 10.3336C4.02112 11.8536 4.71445 12.7336 5.90778 12.7336C6.72779 12.7336 7.24779 12.3603 7.52779 11.5669L6.69445 11.1069C6.52779 11.6869 6.33445 11.8669 5.87445 11.8669C5.34112 11.8669 5.04112 11.3136 5.04112 10.3336Z" fill="black"/>
<path d="M9.89851 12.7336C10.9252 12.7336 11.5718 12.1803 11.5718 11.3003C11.5718 10.6069 11.1452 10.1469 10.2718 9.91359L9.82518 9.79359C9.42518 9.68693 9.27185 9.54026 9.27185 9.26026C9.27185 8.96026 9.53185 8.76026 9.92518 8.76026C10.2652 8.76026 10.5385 8.98026 10.6052 9.32026L11.4585 8.92026C11.3385 8.33359 10.7118 7.93359 9.91185 7.93359C8.95185 7.93359 8.27185 8.51359 8.27185 9.32026C8.27185 10.0203 8.67851 10.4669 9.51851 10.6936L9.96518 10.8136C10.4118 10.9336 10.5718 11.0936 10.5718 11.3936C10.5718 11.7136 10.3185 11.9069 9.89851 11.9069C9.47185 11.9069 9.24518 11.7136 9.01851 11.1403L8.18518 11.6269C8.43185 12.3669 9.00518 12.7336 9.89851 12.7336Z" fill="black"/>
<path d="M14.8892 8.00026L14.0226 11.4336L13.1492 8.00026H12.1026L13.5292 12.6669H14.4759L15.9026 8.00026H14.8892Z" fill="black"/>
</svg>

<svg width="16" height="16" viewBox="0 0 16 16" fill="none" xmlns="http://www.w3.org/2000/svg"><path d="M10.718 4.985a.75.75 0 0 0 1.144-.97l-1.144.97ZM4 15.593a.75.75 0 0 0 0-1.5v1.5ZM2 1v.75V1Zm5.857 0v.75V1Zm.763.353-.572.485.572-.485Zm-6.87 12.49V2H.25v11.843h1.5ZM2 1.75h5.857V.25H2v1.5Zm6.048.088 2.67 3.147 1.144-.97L9.192.868l-1.144.97ZM2 15.593h2v-1.5H2v1.5ZM1.75 2A.25.25 0 0 1 2 1.75V.25A1.75 1.75 0 0 0 .25 2h1.5ZM.25 13.843c0 .966.784 1.75 1.75 1.75v-1.5a.25.25 0 0 1-.25-.25H.25ZM7.857 1.75a.25.25 0 0 1 .19.088l1.144-.97A1.75 1.75 0 0 0 7.857.25v1.5Zm-2.816 8.584c0-.927.32-1.534.82-1.534.427 0 .653.254.72.807l.927-.327c-.14-.853-.727-1.346-1.6-1.346-1.174 0-1.887.906-1.887 2.4 0 1.52.693 2.4 1.887 2.4.82 0 1.34-.374 1.62-1.167l-.834-.46c-.166.58-.36.76-.82.76-.533 0-.833-.553-.833-1.533Zm4.858 2.4c1.026 0 1.673-.554 1.673-1.434 0-.693-.427-1.153-1.3-1.386l-.447-.12c-.4-.107-.553-.254-.553-.534 0-.3.26-.5.653-.5.34 0 .614.22.68.56l.854-.4c-.12-.586-.747-.986-1.547-.986-.96 0-1.64.58-1.64 1.386 0 .7.407 1.147 1.247 1.374l.446.12c.447.12.607.28.607.58 0 .32-.253.513-.673.513-.427 0-.654-.193-.88-.767l-.834.487c.247.74.82 1.107 1.714 1.107ZM14.89 8l-.867 3.434L13.149 8h-1.046l1.426 4.667h.947L15.903 8h-1.014Z" fill="#000"/></svg>
